Origami/64x64/apps/chocolate-doom.svg

<svg width="64" height="64" version="1" xmlns="http://www.w3.org/2000/svg">
 <path d="m22.18223 24.000734a2.1819445 2.4001906 0 0 0 -2.107157 3.023378l7.636044 31.199362a2.1819445 2.4001906 0 0 0 2.107156 1.776526h4.363454a2.1819445 2.4001906 0 0 0 2.107158 -1.776526l7.636042-31.199362a2.1819445 2.4001906 0 0 0 -2.107157 -3.023378z" style="opacity:.2"/>
 <path d="m29.62311 3.0050923c0.155297-0.097492 2.206431 1.2185752 4.316538 2.769096 3.089009 2.2698417 5.052109 4.2768157 6.772352 6.9361337 0.42506 0.657164 0.776464 1.341394 1.092534 2.035051 0.183816 0.286492 0.357585 0.580541 0.520763 0.881546 3.340182 6.288873 1.527031 14.225109-4.049095 17.725643-5.576128 3.500536-12.803667 1.239786-16.143155-5.049522-0.153617-0.289509-0.298362-0.584449-0.430979-0.886012-0.161397-0.283365-0.339549-0.55747-0.477356-0.84949-1.892286-4.01107-1.507696-8.305103 0.57785-11.959668 1.10415-1.934834 3.317422-3.907493 4.911174-4.9127924 1.988291-1.2541616 2.658556-3.7905764 2.784587-5.9962905 0.02016-0.3530722 0.07828-0.6645016 0.124697-0.6936358z" style="fill:#975a34"/>
 <path d="m22.18223 23.000042a2.1819445 2.4002395 0 0 0 -2.107157 3.02344l7.636044 31.199998a2.1819445 2.4002395 0 0 0 2.107156 1.776562h4.363454a2.1819445 2.4002395 0 0 0 2.107158 -1.776562l7.636042-31.199998a2.1819445 2.4002395 0 0 0 -2.107157 -3.02344z" style="fill:#f1b65c"/>
 <rect x="16" y="23" width="32" height="3" rx="1.455" ry="1.5" style="opacity:.2"/>
 <rect x="16" y="22" width="32" height="3" rx="1.455" ry="1.5" style="fill:#ffcf88"/>
 <path d="m29.623047 3.0058594c-0.046417 0.0291342-0.10484 0.3402871-0.125 0.6933594-0.126031 2.205714-0.796865 4.7419321-2.785156 5.9960937-1.593752 1.0052995-3.806007 2.9772755-4.910157 4.9121095-1.209363 2.119204-1.826156 4.454824-1.779296 6.824219 0.123382-2.024214 0.74021-4.003397 1.779296-5.824219 1.10415-1.934834 3.316405-3.90681 4.910157-4.91211 1.988291-1.2541614 2.659125-3.7903792 2.785156-5.9960932 0.02016-0.3530722 0.078583-0.6642252 0.125-0.6933594 0.155297-0.097492 2.206299 1.2170573 4.316406 2.7675781 3.089009 2.2698417 5.053195 4.2781825 6.773438 6.9375005 0.42506 0.657163 0.775727 1.341499 1.091797 2.035156 0.183816 0.286492 0.358306 0.579854 0.521484 0.880859 1.03219 1.9434 1.569215 4.044529 1.658203 6.123047 0.06406-2.399415-0.459854-4.866804-1.658203-7.123047-0.163178-0.301005-0.337668-0.594367-0.521484-0.880859-0.31607-0.693657-0.666737-1.377993-1.091797-2.035156-1.720243-2.659318-3.684429-4.6676588-6.773438-6.9375005-2.110107-1.5505208-4.161109-2.8650701-4.316406-2.7675781z" style="fill:#ffffff;opacity:.1"/>
</svg>

<svg xmlns="http://www.w3.org/2000/svg" width="64" height="64" version="1">
 <path style="opacity:0.2" d="m 22.18223,24.000734 a 2.1819445,2.4001906 0 0 0 -2.107157,3.023378 l 7.636044,31.199362 A 2.1819445,2.4001906 0 0 0 29.818273,60 h 4.363454 a 2.1819445,2.4001906 0 0 0 2.107158,-1.776526 L 43.924927,27.024112 A 2.1819445,2.4001906 0 0 0 41.81777,24.000734 Z"/>
 <path style="fill:#975a34" d="m 29.62311,3.0050923 c 0.155297,-0.097492 2.206431,1.2185752 4.316538,2.769096 3.089009,2.2698417 5.052109,4.2768157 6.772352,6.9361337 0.42506,0.657164 0.776464,1.341394 1.092534,2.035051 0.183816,0.286492 0.357585,0.580541 0.520763,0.881546 3.340182,6.288873 1.527031,14.225109 -4.049095,17.725643 -5.576128,3.500536 -12.803667,1.239786 -16.143155,-5.049522 -0.153617,-0.289509 -0.298362,-0.584449 -0.430979,-0.886012 -0.161397,-0.283365 -0.339549,-0.55747 -0.477356,-0.84949 -1.892286,-4.01107 -1.507696,-8.305103 0.57785,-11.959668 1.10415,-1.934834 3.317422,-3.907493 4.911174,-4.9127924 1.988291,-1.2541616 2.658556,-3.7905764 2.784587,-5.9962905 0.02016,-0.3530722 0.07828,-0.6645016 0.124697,-0.6936358 z"/>
 <path style="fill:#f1b65c" d="m 22.18223,23.000042 a 2.1819445,2.4002395 0 0 0 -2.107157,3.02344 l 7.636044,31.199998 a 2.1819445,2.4002395 0 0 0 2.107156,1.776562 h 4.363454 a 2.1819445,2.4002395 0 0 0 2.107158,-1.776562 l 7.636042,-31.199998 a 2.1819445,2.4002395 0 0 0 -2.107157,-3.02344 z"/>
 <rect style="opacity:0.2" width="32" height="3" x="16" y="23" rx="1.455" ry="1.5"/>
 <rect style="fill:#ffcf88" width="32" height="3" x="16" y="22" rx="1.455" ry="1.5"/>
 <path style="fill:#ffffff;opacity:0.1" d="M 29.623047 3.0058594 C 29.57663 3.0349936 29.518207 3.3461465 29.498047 3.6992188 C 29.372016 5.9049328 28.701182 8.4411509 26.712891 9.6953125 C 25.119139 10.700612 22.906884 12.672588 21.802734 14.607422 C 20.593371 16.726626 19.976578 19.062246 20.023438 21.431641 C 20.14682 19.407427 20.763648 17.428244 21.802734 15.607422 C 22.906884 13.672588 25.119139 11.700612 26.712891 10.695312 C 28.701182 9.4411506 29.372016 6.9049328 29.498047 4.6992188 C 29.518207 4.3461466 29.57663 4.0349936 29.623047 4.0058594 C 29.778344 3.9083674 31.829346 5.2229167 33.939453 6.7734375 C 37.028462 9.0432792 38.992648 11.05162 40.712891 13.710938 C 41.137951 14.368101 41.488618 15.052437 41.804688 15.746094 C 41.988504 16.032586 42.162994 16.325948 42.326172 16.626953 C 43.358362 18.570353 43.895387 20.671482 43.984375 22.75 C 44.048435 20.350585 43.524521 17.883196 42.326172 15.626953 C 42.162994 15.325948 41.988504 15.032586 41.804688 14.746094 C 41.488618 14.052437 41.137951 13.368101 40.712891 12.710938 C 38.992648 10.05162 37.028462 8.0432792 33.939453 5.7734375 C 31.829346 4.2229167 29.778344 2.9083674 29.623047 3.0058594 z"/>
</svg>
